flaticon/transport/bus-12.svg

<svg xmlns="http://www.w3.org/2000/svg" width="32" height="32" viewBox="0 0 24 24">
    <path d="M17.441406 5.199219L14.558594 5.199219C14.039062 5.199219 13.601562 5.640625 13.601562 6.160156L13.601562 9.839844C13.601562 10.359375 14.039062 10.800781 14.558594 10.800781L17.441406 10.800781C17.960938 10.800781 18.398438 10.359375 18.398438 9.839844L18.398438 6.160156C18.398438 5.640625 17.960938 5.199219 17.441406 5.199219zM17.601562 9.839844C17.601562 9.921875 17.519531 10 17.441406 10L14.558594 10C14.480469 10 14.398438 9.921875 14.398438 9.839844L14.398438 6.160156C14.398438 6.078125 14.480469 6 14.558594 6L17.441406 6C17.519531 6 17.601562 6.078125 17.601562 6.160156zM4.800781 16.800781C4.359375 16.800781 4 17.160156 4 17.601562 4 18.039062 4.359375 18.398438 4.800781 18.398438 5.238281 18.398438 5.601562 18.039062 5.601562 17.601562 5.601562 17.160156 5.238281 16.800781 4.800781 16.800781zM19.199219 16.800781C18.761719 16.800781 18.398438 17.160156 18.398438 17.601562 18.398438 18.039062 18.761719 18.398438 19.199219 18.398438 19.640625 18.398438 20 18.039062 20 17.601562 20 17.160156 19.640625 16.800781 19.199219 16.800781zM19.199219 16.800781"/>
    <path d="M 22.800781 3.601562 L 4.800781 3.601562 C 4.441406 3.601562 4.078125 3.761719 3.839844 4 L 2.789062 5.160156 L 2.761719 5.160156 L 0.359375 7.839844 C 0.121094 8.121094 0 8.441406 0 8.761719 L 0 16.800781 C 0 17.441406 0.519531 18 1.199219 18 L 2.027344 18 C 2.21875 19.367188 3.375 20.398438 4.800781 20.398438 C 6.222656 20.398438 7.378906 19.367188 7.570312 18 L 16.429688 18 C 16.621094 19.367188 17.777344 20.398438 19.199219 20.398438 C 20.625 20.398438 21.78125 19.367188 21.972656 18 L 22.800781 18 C 23.441406 18 24 17.441406 24 16.800781 L 24 4.800781 C 24 4.160156 23.480469 3.601562 22.800781 3.601562 Z M 3.121094 6 L 5.601562 6 L 5.601562 10 L 0.800781 10 L 0.800781 8.761719 C 0.800781 8.640625 0.839844 8.480469 0.960938 8.398438 L 2.679688 6.480469 Z M 4.800781 19.601562 C 3.679688 19.601562 2.800781 18.71875 2.800781 17.601562 C 2.800781 16.480469 3.679688 15.601562 4.800781 15.601562 C 5.921875 15.601562 6.800781 16.480469 6.800781 17.601562 C 6.800781 18.71875 5.921875 19.601562 4.800781 19.601562 Z M 8.398438 17.199219 L 8.398438 6.160156 C 8.398438 6.078125 8.480469 6 8.558594 6 L 11.441406 6 C 11.519531 6 11.601562 6.078125 11.601562 6.160156 L 11.601562 17.199219 Z M 19.199219 19.601562 C 18.078125 19.601562 17.199219 18.71875 17.199219 17.601562 C 17.199219 16.480469 18.078125 15.601562 19.199219 15.601562 C 20.320312 15.601562 21.199219 16.480469 21.199219 17.601562 C 21.199219 18.71875 20.320312 19.601562 19.199219 19.601562 Z M 23.160156 10 L 20.480469 10 C 20.441406 10 20.398438 9.960938 20.398438 9.921875 L 20.398438 6.078125 C 20.398438 6.039062 20.441406 6 20.480469 6 L 23.160156 6 Z M 20.480469 5.199219 C 20 5.199219 19.601562 5.601562 19.601562 6.078125 L 19.601562 9.921875 C 19.601562 10.398438 20 10.800781 20.480469 10.800781 L 23.160156 10.800781 L 23.160156 16.800781 C 23.160156 17 23 17.199219 22.761719 17.199219 L 21.972656 17.199219 C 21.78125 15.832031 20.625 14.800781 19.199219 14.800781 C 19.1875 14.800781 19.175781 14.800781 19.160156 14.800781 C 19.148438 14.800781 19.132812 14.800781 19.121094 14.800781 C 17.71875 14.800781 16.558594 15.839844 16.359375 17.199219 L 12.398438 17.199219 L 12.398438 6.160156 C 12.398438 5.640625 11.960938 5.199219 11.441406 5.199219 L 8.558594 5.199219 C 8.039062 5.199219 7.601562 5.640625 7.601562 6.160156 L 7.601562 17.199219 L 7.570312 17.199219 C 7.378906 15.832031 6.222656 14.800781 4.800781 14.800781 C 4.792969 14.800781 4.789062 14.800781 4.78125 14.800781 C 4.773438 14.800781 4.765625 14.800781 4.761719 14.800781 C 3.359375 14.800781 2.199219 15.839844 2 17.199219 L 1.199219 17.199219 C 1 17.199219 0.800781 17.039062 0.800781 16.800781 L 0.800781 13.601562 L 2.800781 13.601562 C 3.039062 13.601562 3.199219 13.441406 3.199219 13.199219 C 3.199219 12.960938 3.039062 12.800781 2.800781 12.800781 L 0.800781 12.800781 L 0.800781 10.800781 L 5.71875 10.800781 C 6.078125 10.800781 6.398438 10.480469 6.398438 10.121094 L 6.398438 5.878906 C 6.398438 5.519531 6.078125 5.199219 5.71875 5.160156 L 3.863281 5.160156 L 4.398438 4.558594 C 4.519531 4.480469 4.640625 4.398438 4.800781 4.398438 L 22.761719 4.398438 C 22.960938 4.398438 23.160156 4.558594 23.160156 4.800781 L 23.160156 5.199219 Z M 20.480469 5.199219"/>
    <path d="M 10.398438 11.199219 L 9.601562 11.199219 C 9.359375 11.199219 9.199219 11.359375 9.199219 11.601562 C 9.199219 11.839844 9.359375 12 9.601562 12 L 10.398438 12 C 10.640625 12 10.800781 11.839844 10.800781 11.601562 C 10.800781 11.359375 10.640625 11.199219 10.398438 11.199219 Z M 10.398438 11.199219"/>
</svg>

<svg xmlns="http://www.w3.org/2000/svg" width="32" height="32" viewBox="0 0 24 24">
    <path d="M17.441 5.2H14.56a.972.972 0 0 0-.957.96v3.68c0 .52.437.96.957.96h2.882c.52 0 .957-.44.957-.96V6.16c0-.52-.437-.96-.957-.96zm.16 4.64c0 .082-.081.16-.16.16H14.56c-.079 0-.16-.078-.16-.16V6.16c0-.082.081-.16.16-.16h2.882c.079 0 .16.078.16.16zm0 0M4.8 16.8c-.44 0-.8.36-.8.802a.801.801 0 0 0 1.602 0c0-.442-.364-.801-.801-.801zm0 0M19.2 16.8c-.438 0-.802.36-.802.802a.801.801 0 0 0 1.602 0c0-.442-.36-.801-.8-.801zm0 0"/>
    <path d="M22.8 3.602h-18c-.359 0-.722.16-.96.398L2.79 5.16h-.028L.359 7.84C.121 8.12 0 8.44 0 8.762V16.8C0 17.44.52 18 1.2 18h.827a2.779 2.779 0 0 0 2.774 2.398A2.778 2.778 0 0 0 7.57 18h8.859a2.778 2.778 0 0 0 2.77 2.398A2.779 2.779 0 0 0 21.972 18h.828c.64 0 1.199-.559 1.199-1.2v-12c0-.64-.52-1.198-1.2-1.198zM3.122 6h2.48v4h-4.8V8.762c0-.121.039-.282.16-.364L2.68 6.48zm1.68 13.602c-1.121 0-2-.883-2-2 0-1.122.879-2 2-2 1.12 0 2 .878 2 2 0 1.117-.88 2-2 2zm3.597-2.403V6.16c0-.082.082-.16.16-.16h2.883c.079 0 .16.078.16.16V17.2zM19.2 19.602c-1.12 0-2-.883-2-2 0-1.122.88-2 2-2 1.121 0 2 .878 2 2 0 1.117-.879 2-2 2zM23.16 10h-2.68c-.039 0-.082-.04-.082-.078V6.078c0-.039.043-.078.082-.078h2.68zm-2.68-4.8a.888.888 0 0 0-.878.878v3.844c0 .476.398.879.878.879h2.68v6a.4.4 0 0 1-.398.398h-.79a2.779 2.779 0 0 0-2.773-2.398h-.078a2.797 2.797 0 0 0-2.762 2.398H12.4V6.16c0-.52-.438-.96-.958-.96H8.56a.972.972 0 0 0-.957.96V17.2H7.57a2.778 2.778 0 0 0-2.77-2.4h-.039A2.797 2.797 0 0 0 2 17.2h-.8a.4.4 0 0 1-.4-.4v-3.198h2c.24 0 .4-.16.4-.403 0-.238-.16-.398-.4-.398h-2v-2H5.72c.36 0 .68-.32.68-.68V5.88c0-.36-.32-.68-.68-.719H3.863l.535-.601c.122-.079.243-.16.403-.16h17.96a.4.4 0 0 1 .4.402v.398zm0 0"/>
    <path d="M10.398 11.2h-.796c-.243 0-.403.16-.403.402 0 .238.16.398.403.398h.796c.243 0 .403-.16.403-.398 0-.243-.16-.403-.403-.403zm0 0"/>
</svg>
